X:1
T:Newcastle
C:John Playford, The English Dancing Master, 1651
N:arr. Dave Lankford
P:AA BB x 3
M:C|
L:1/4
K:G major
P:A
D | "G"Bd GA | G3/A/ GD | Bd Gd | "C"eg2f/e/ | "G"dB AG | "C"Ee2d/c/ | "G"dB "D"A3/G/ | "G"G3 ::
P:B
"C"e/f/ | "G"g/f/e/d/ g3/B/ | "C"Ag2A | "G"G3/A/ BF | "C"Ee2e/f/ | "G"g/f/e/d/ g3/B/ | "Am"AA "C"c3/d/ | "Am"eB "D"A3/G/ | "G"G3 :|

